webroot/img/new-desgin/clock-icon.svg

<svg width="40" height="40" viewBox="0 0 40 40" fill="none" xmlns="http://www.w3.org/2000/svg">
<g id="Frame">
<g id="Group">
<path id="Vector" d="M36.8918 12.8649C35.0299 8.46978 31.5314 4.97129 27.1363 3.10939C24.8773 2.15805 22.4508 1.66797 19.9996 1.66797C17.5484 1.66797 15.122 2.15805 12.8629 3.10939C8.46783 4.97129 4.96934 8.46978 3.10743 12.8649C2.15609 15.1239 1.66602 17.5504 1.66602 20.0016C1.66602 22.4528 2.15609 24.8792 3.10743 27.1383C4.96934 31.5334 8.46783 35.0319 12.8629 36.8938C15.122 37.8451 17.5484 38.3352 19.9996 38.3352C22.4508 38.3352 24.8773 37.8451 27.1363 36.8938C31.5314 35.0319 35.0299 31.5334 36.8918 27.1383C37.8432 24.8792 38.3332 22.4528 38.3332 20.0016C38.3332 17.5504 37.8432 15.1239 36.8918 12.8649ZM19.9996 35.0016C11.7285 35.0016 4.99962 28.2727 4.99962 20.0016C4.99962 11.7305 11.7285 5.00158 19.9996 5.00158C28.2707 5.00158 34.9996 11.7305 34.9996 20.0016C34.9996 28.2727 28.2707 35.0016 19.9996 35.0016Z" fill="url(#paint0_linear_1014_15847)"/>
<path id="Vector_2" d="M21.6668 19.3117V10.0023C21.6668 9.56039 21.4912 9.13653 21.1787 8.82402C20.8662 8.5115 20.4423 8.33594 20.0004 8.33594C19.5584 8.33594 19.1346 8.5115 18.8221 8.82402C18.5096 9.13653 18.334 9.56039 18.334 10.0023V20.0023C18.3338 20.2212 18.3769 20.4379 18.4607 20.6401C18.5445 20.8423 18.6673 21.0259 18.8223 21.1805L23.8223 26.1805C23.9768 26.336 24.1606 26.4596 24.363 26.544C24.5654 26.6284 24.7825 26.672 25.0018 26.6724C25.2212 26.6727 25.4384 26.6297 25.6411 26.546C25.8437 26.4622 26.0279 26.3392 26.1829 26.1841C26.338 26.029 26.4609 25.8448 26.5446 25.6421C26.6283 25.4394 26.6712 25.2222 26.6708 25.0029C26.6704 24.7835 26.6267 24.5665 26.5422 24.3641C26.4577 24.1617 26.3341 23.978 26.1785 23.8234L21.6668 19.3117Z" fill="url(#paint1_linear_1014_15847)"/>
</g>
</g>
<defs>
<linearGradient id="paint0_linear_1014_15847" x1="5.10036" y1="5.01738" x2="38.1057" y2="46.4955" gradientUnits="userSpaceOnUse">
<stop stop-color="#007BC4"/>
<stop offset="1" stop-color="#0B4C97"/>
</linearGradient>
<linearGradient id="paint1_linear_1014_15847" x1="19.1148" y1="10.0109" x2="33.7068" y2="18.3484" gradientUnits="userSpaceOnUse">
<stop stop-color="#007BC4"/>
<stop offset="1" stop-color="#0B4C97"/>
</linearGradient>
</defs>
</svg>

<svg width="40" height="40" fill="none" xmlns="http://www.w3.org/2000/svg"><path d="M36.892 12.865a18.382 18.382 0 0 0-9.756-9.756 18.388 18.388 0 0 0-14.273 0 18.382 18.382 0 0 0-9.756 9.756 18.388 18.388 0 0 0 0 14.273 18.382 18.382 0 0 0 9.756 9.756 18.39 18.39 0 0 0 14.273 0 18.382 18.382 0 0 0 9.756-9.756 18.387 18.387 0 0 0 0-14.273ZM20 35.002c-8.271 0-15-6.73-15-15 0-8.271 6.729-15 15-15 8.27 0 15 6.728 15 15 0 8.27-6.73 15-15 15Z" fill="url(#a)"/><path d="M21.667 19.312v-9.31a1.666 1.666 0 0 0-3.333 0v10a1.662 1.662 0 0 0 .488 1.178l5 5a1.667 1.667 0 1 0 2.357-2.357l-4.512-4.511Z" fill="url(#b)"/><defs><linearGradient id="a" x1="5.1" y1="5.017" x2="38.106" y2="46.495" gradientUnits="userSpaceOnUse"><stop stop-color="#007BC4"/><stop offset="1" stop-color="#0B4C97"/></linearGradient><linearGradient id="b" x1="19.115" y1="10.011" x2="33.707" y2="18.348" gradientUnits="userSpaceOnUse"><stop stop-color="#007BC4"/><stop offset="1" stop-color="#0B4C97"/></linearGradient></defs></svg>
